icons/14x14_calendar_outline.svg

<svg width="14" height="14" fill="none" xmlns="http://www.w3.org/2000/svg"><path fill-rule="evenodd" clip-rule="evenodd" d="M9 2a1 1 0 0 0-1 1H6a1 1 0 0 0-2 0c-1.103 0-2 .897-2 2v5c0 1.103.897 2 2 2h6c1.103 0 2-.897 2-2V5c0-1.103-.897-2-2-2a1 1 0 0 0-1-1Zm1 8H4V6h6v4Z" fill="#000"/></svg>

<svg xmlns="http://www.w3.org/2000/svg" width="14" height="14" viewBox="0 0 14 14">
  <path fill-rule="evenodd" d="M9,2 C8.448,2 8,2.448 8,3 L6,3 C6,2.448 5.552,2 5,2 C4.448,2 4,2.448 4,3 C2.897,3 2,3.897 2,5 L2,10 C2,11.103 2.897,12 4,12 L10,12 C11.103,12 12,11.103 12,10 L12,5 C12,3.897 11.103,3 10,3 C10,2.448 9.552,2 9,2 Z M10,10 L4,10 L4,6 L10,6 L10,10 Z"/>
</svg>
